X: 4
T: Ah Surely
R: reel
M: 4/4
L: 1/8
K: Gmaj
|:A3c BGGG|BGBd g2 fg|eA A2 BG (3Bcd|egdc BAGB|!
A3c BGGG|BGBd g2ga|bgag egfa|gedc BG G2:|!
|:bggg agef|g2ge dega|bggg aged|eaag a2ga|!
bggg agef|g2ge dega|bgag (3efg fa|gedc BG G2:|
